webroot/img/new-desgin/graduation-icon.svg

<svg width="40" height="40" viewBox="0 0 40 40" fill="none" xmlns="http://www.w3.org/2000/svg">
<g id="Frame" clip-path="url(#clip0_1019_15915)">
<g id="Group">
<path id="Vector" d="M38.3635 12.6964L21.6235 5.61303C21.1091 5.39663 20.5566 5.28516 19.9985 5.28516C19.4404 5.28516 18.8879 5.39663 18.3735 5.61303L1.63352 12.6964C1.18105 12.8877 0.794998 13.2082 0.523583 13.6177C0.252169 14.0272 0.107422 14.5076 0.107422 14.9989C0.107422 15.4901 0.252169 15.9705 0.523583 16.38C0.794998 16.7895 1.18105 17.11 1.63352 17.3014L7.50018 19.7822V27.7597C7.49567 28.476 7.67771 29.1812 8.02838 29.8058C8.37905 30.4305 8.88628 30.9531 9.50018 31.3222C12.686 33.1848 16.3099 34.1664 20.0002 34.1664C23.6905 34.1664 27.3144 33.1848 30.5002 31.3222C31.1141 30.9531 31.6213 30.4305 31.972 29.8058C32.3227 29.1812 32.5047 28.476 32.5002 27.7597V19.7822L35.0002 18.7239V22.6755C34.6654 22.8205 34.3748 23.0511 34.1577 23.3443C33.9406 23.6375 33.8047 23.9827 33.7637 24.3452C33.7227 24.7077 33.7781 25.0746 33.9242 25.4088C34.0703 25.7431 34.3021 26.0328 34.596 26.2489C34.3345 26.4412 34.1218 26.6922 33.9749 26.9816C33.828 27.2711 33.751 27.5909 33.7502 27.9155V29.9989C33.7502 30.2199 33.838 30.4318 33.9943 30.5881C34.1505 30.7444 34.3625 30.8322 34.5835 30.8322H37.0835C37.3045 30.8322 37.5165 30.7444 37.6728 30.5881C37.8291 30.4318 37.9169 30.2199 37.9169 29.9989V27.9155C37.916 27.5909 37.839 27.2711 37.6921 26.9816C37.5452 26.6922 37.3325 26.4412 37.071 26.2489C37.365 26.0328 37.5967 25.7431 37.7428 25.4088C37.889 25.0746 37.9443 24.7077 37.9033 24.3452C37.8623 23.9827 37.7264 23.6375 37.5093 23.3443C37.2922 23.0511 37.0016 22.8205 36.6669 22.6755V18.0189L38.3635 17.3014C38.816 17.11 39.202 16.7895 39.4734 16.38C39.7449 15.9705 39.8896 15.4901 39.8896 14.9989C39.8896 14.5076 39.7449 14.0272 39.4734 13.6177C39.202 13.2082 38.816 12.8877 38.3635 12.6964ZM36.2502 24.5822C36.2502 24.6646 36.2257 24.7452 36.18 24.8137C36.1342 24.8822 36.0691 24.9356 35.993 24.9671C35.9168 24.9987 35.8331 25.0069 35.7522 24.9909C35.6714 24.9748 35.5972 24.9351 35.5389 24.8768C35.4806 24.8186 35.4409 24.7443 35.4249 24.6635C35.4088 24.5827 35.417 24.4989 35.4486 24.4227C35.4801 24.3466 35.5335 24.2815 35.602 24.2358C35.6705 24.19 35.7511 24.1655 35.8335 24.1655C35.944 24.1655 36.05 24.2094 36.1281 24.2876C36.2063 24.3657 36.2502 24.4717 36.2502 24.5822ZM36.2502 29.1655H35.4169V27.9155C35.4169 27.805 35.4607 27.699 35.5389 27.6209C35.617 27.5428 35.723 27.4989 35.8335 27.4989C35.944 27.4989 36.05 27.5428 36.1281 27.6209C36.2063 27.699 36.2502 27.805 36.2502 27.9155V29.1655ZM30.8335 27.7597C30.8383 28.1859 30.7322 28.606 30.5254 28.9788C30.3187 29.3515 30.0185 29.664 29.6543 29.8855C26.7248 31.5969 23.393 32.4988 20.0002 32.4988C16.6074 32.4988 13.2756 31.5969 10.346 29.8855C9.98189 29.664 9.68169 29.3515 9.47495 28.9788C9.2682 28.606 9.16202 28.1859 9.16685 27.7597V20.4872L18.3769 24.3839C18.8912 24.6005 19.4437 24.7121 20.0019 24.7121C20.56 24.7121 21.1125 24.6005 21.6269 24.3839L30.8335 20.4872V27.7597ZM37.7143 15.7664L20.9744 22.8497C20.6659 22.9792 20.3347 23.046 20.0002 23.046C19.6656 23.046 19.3345 22.9792 19.026 22.8497L2.28602 15.7664C2.13519 15.7026 2.00651 15.5958 1.91604 15.4593C1.82557 15.3228 1.77732 15.1626 1.77732 14.9989C1.77732 14.8351 1.82557 14.675 1.91604 14.5385C2.00651 14.402 2.13519 14.2952 2.28602 14.2314L19.026 7.14803C19.3344 7.01822 19.6656 6.95135 20.0002 6.95135C20.3348 6.95135 20.666 7.01822 20.9744 7.14803L37.7143 14.2314C37.8652 14.2952 37.9939 14.402 38.0843 14.5385C38.1748 14.675 38.223 14.8351 38.223 14.9989C38.223 15.1626 38.1748 15.3228 38.0843 15.4593C37.9939 15.5958 37.8652 15.7026 37.7143 15.7664Z" fill="url(#paint0_linear_1019_15915)" stroke="url(#paint1_linear_1019_15915)"/>
</g>
</g>
<defs>
<linearGradient id="paint0_linear_1019_15915" x1="3.83353" y1="7.92336" x2="26.9446" y2="47.9296" gradientUnits="userSpaceOnUse">
<stop stop-color="#007BC4"/>
<stop offset="1" stop-color="#0B4C97"/>
</linearGradient>
<linearGradient id="paint1_linear_1019_15915" x1="3.83353" y1="7.92336" x2="26.9446" y2="47.9296" gradientUnits="userSpaceOnUse">
<stop stop-color="#007BC4"/>
<stop offset="1" stop-color="#0B4C97"/>
</linearGradient>
<clipPath id="clip0_1019_15915">
<rect width="40" height="40" fill="white"/>
</clipPath>
</defs>
</svg>

<svg width="40" height="40" fill="none" xmlns="http://www.w3.org/2000/svg"><g clip-path="url(#a)"><path d="m38.364 12.696-16.74-7.083a4.19 4.19 0 0 0-3.25 0l-16.74 7.083a2.5 2.5 0 0 0 0 4.605L7.5 19.782v7.978a4.127 4.127 0 0 0 2 3.562 20.804 20.804 0 0 0 21 0 4.126 4.126 0 0 0 2-3.562v-7.978l2.5-1.058v3.951a2.074 2.074 0 0 0-.404 3.574 2.076 2.076 0 0 0-.846 1.667v2.083a.833.833 0 0 0 .834.833h2.5a.833.833 0 0 0 .833-.833v-2.083a2.076 2.076 0 0 0-.846-1.667 2.073 2.073 0 0 0-.404-3.573v-4.657l1.697-.718a2.5 2.5 0 0 0 0-4.605ZM36.25 24.582a.417.417 0 1 1-.834 0 .417.417 0 0 1 .834 0Zm0 4.584h-.833v-1.25a.416.416 0 1 1 .833 0v1.25Zm-5.416-1.406a2.456 2.456 0 0 1-1.18 2.125 19.139 19.139 0 0 1-19.308 0 2.455 2.455 0 0 1-1.18-2.125v-7.273l9.21 3.897a4.187 4.187 0 0 0 3.25 0l9.207-3.897v7.273Zm6.88-11.994-16.74 7.084a2.517 2.517 0 0 1-1.948 0l-16.74-7.084a.833.833 0 0 1 0-1.535l16.74-7.083a2.511 2.511 0 0 1 1.948 0l16.74 7.083a.833.833 0 0 1 0 1.535Z" fill="url(#b)" stroke="url(#c)"/></g><defs><linearGradient id="b" x1="3.834" y1="7.923" x2="26.945" y2="47.93" gradientUnits="userSpaceOnUse"><stop stop-color="#007BC4"/><stop offset="1" stop-color="#0B4C97"/></linearGradient><linearGradient id="c" x1="3.834" y1="7.923" x2="26.945" y2="47.93" gradientUnits="userSpaceOnUse"><stop stop-color="#007BC4"/><stop offset="1" stop-color="#0B4C97"/></linearGradient><clipPath id="a"><path fill="#fff" d="M0 0h40v40H0z"/></clipPath></defs></svg>
